X:1
T:Barbados
C:1948 - Charlie Parker
Z:www.realbook.site
L:1/8
M:4/4
I:linebreak $
K:F
V:1 treble nm=" " snm=" "
V:1
|:"F" G2 z c A3 B |"Gm7" (3c2 A2 B2"C7" _d a2 g |"F" egfc Bdcc |"Cm7" z A/B/ cd"F7" _efdA |$ %4
"Bb7" cFG_A z2 z F | GFBA cB_ec |"F" z2 z c c4 |"D7" z c2 A BAcB |$"Gm7" AFGA c2 z B/c/ | %9
"C7" _d a3- a2 g2 |"F" z E FG AGFE |1"Gm7" z E FG"C7" AGFE :|2"F" F2 z2 z4 |] %13

